X:1
T:D minor Timothy Swan, 1799
T:Isaac Watts, 1717 (Psalm 117, Version 2)      88. 88. (L. M.)
T:Verona Transcribed from The New England Harmony, 1801.
%%score [ 1 2 3 ]
L:1/8
Q:1/4=80
M:2/4
K:C
V:1 treble nm="Tr." snm="Tr."
V:2 treble-8 nm="T." snm="T."
V:3 bass nm="B." snm="B."
V:1
 G2 | EG EG | C2 z G | cE DC | G3 e | c2 cA | G2 G2 | A2 Bd | c3 c | B2 TA2 | G3 B | ce dc | %12
{c} B4 | d2 dd | c3 c | [GB]2 B2 | c2 z e | c2 df | ed cA | G2 TB2 | c3 c | A2 Af | e3 e | fe dc | %24
 G4 | z2 e2 | e2 d2 | e2 d2 | cG ec | d2 z d | ed/e/ cc | g2 G2 | AG/A/ Bc | TB2 z e | d2 BG | %35
 dB GE | F3 A | G2 z G | c2 Te2 | g2 G2 | c z B2 | c4 |] %42
V:2
"^From  all     that        dwell  be    –    low     the    skies    Let    the     Cre    –    a    –    tor's     praise          a – rise;     Let    the    Re –" G2 | %1
 G2 GA/B/ | cA GE | EG GA |{A} c3 A | Ac cd/e/ | dc EG | cB/c/ dG |{G} e3 e | Td2 c2 | %10
"^–dee – mer's   name be  sung  Through every land, by every tongue.  E – ter–nal     are      thy      mer–cies,   Lord,  E  –  ter – nal" B>c dG | %11
 EG Gc | d4 | f2 df | (Te2 c)e | (d2 B)d | c2 z G | A2 A2 | A2 Ac | ed dc | c3 G | F2 FA | %22
"^truth  at –tends thy word;            Thy  praise shall sound from shore to  shore,       Till   suns     shall      rise   and    set               no" E3 E | %23
 FE AG | G4 | z2 ce | g3 g | ge dc | e3 e | ed z G | Ac G<E | c3 d/e/ | fd gc | %33
"^more,    Till    suns        shall   rise            and    set               no   more,   Till   suns         shall   rise               and     set   no   more." ed z c | %34
 BA/B/ Gc | cB/c/ dc | fe/f/ dc | TB2 z G | AG/F/ EG | ef/d/ g g/a/ | e2 d2 | c4 |] %42
V:3
 C,2 | C,2 C,2 | C,2 C,2 | C,2 G,,2 | C,3 E, | F,2 C2 | C,2 E,2 | F,2 G,2 | [C,C]3 C, | G,E, F,A, | %10
 G,3 G, | E,C, C,2 | G,4 | D,2 G,G, | A,3 C | G,2 G,2 | C,2 z E, | F,2 D,2 | C,D, E,F, | G,2 G,,2 | %20
 C,3 C, | D,2 B,,2 | C,3 C, | F,E, D,C, | G,4 | z2 C2 | C2 G,2 | C2 G,2 | E,2 C,2 | G,2 z G, | %30
 C,2 C,2 | C,3 C, | D, z E,F, | G,2 z C, | %34
"^_________________________________________________________________\nEdited by B. C. Johnston, 2016\nTop and middle staffs exchanged." G,2 G,2 | %35
 G,3 C, | B,,C, D,D, | G,,2 z G, | C2 C2 | CD EE, | G,2 G,2 | C,4 |] %42

